X:1
T:Title
%%score ( 1 2 ) { 3 | 4 }
L:1/8
Q:1/4=112
M:3/4
K:D
V:1 treble nm="Grand Piano, Soprano"
V:2 treble 
V:3 bass nm="Choir Pad, Colchester (Williams), CM"
V:4 bass 
V:1
 [Fd]2 d3 c | [GB]2 A2 D2 | [EG]2 [DF]3 [CE] | D2 [CA]4 | [DA]2 [DB]3 [Ec] | [Fd]2 [Ge]4 | %6
w: By~Aaron~Williams~(1731\-1776) * *||||||
 [Ec]2 [Fd]4 | [FA]2 [EG]2 [DF]2 | [CE]2 D4 | [EA]2 d3 c | [^GB]2 A4 | A2 d3 e | %12
w: ||||||
 [Af]2 [Ge]2 [Fd]2 | [Ec]2 [Fd]4- | [Fd]4 z2 |] %15
w: |||
V:2
 z2 F4 | x6 | x6 | x6 | x6 | x6 | x6 | x6 | x6 | z2 F4 | x6 | z2 A4 | x6 | x6 | x6 |] %15
V:3
 A,2 A,4 | B,C D4 | A,2 A,3 G, | F,2 E,4 | A,2 G,4 | A,2 B,4 | A,2 A,4 | A,2 A,4 | A,2 A,4 | %9
 E2 D4 | D2 C4 | C2 D4 | D2[K:bass] B,2 A,2 | A,2 A,4- | A,4 z2 |] %15
V:4
 D,2 D,4 | E,2 F,4 | C,2 D,4 | D,2 A,,4 | F,2 z2 z2 | F,2 E,4 | A,,2 D,4 | D,2 C,2 D,2 | G,2 F,4 | %9
 C,2 B,,4 | E,2 A,,4 | A,2 F,4 | D,2 G,2 z2 | A,,2 D,4- | D,4 z2 |] %15

